archdroid-icon-theme/Archdroid-Grey/places/scalable/folder-recent.svg

<svg fill="#9E9E9E" height="48" viewBox="0 0 48 48" width="48" xmlns="http://www.w3.org/2000/svg"><path d="m8 8c-2.21 0-3.980469 1.79-3.980469 4l-.019531 24c0 2.21 1.79 4 4 4h32c2.21 0 4-1.79 4-4v-20c0-2.21-1.79-4-4-4h-16l-4-4zm20.037109 8a10 10 0 0 1 9.201172 6.173828 10 10 0 0 1 -3.68164 12.140625 10 10 0 0 1 -12.626953-1.24414l1.416015-1.416016a8 8 0 0 0 5.654297 2.345703 8 8 0 0 0 8-8 8 8 0 0 0 -8-8 8 8 0 0 0 -8 8h3l-4 4-4-4h3a10 10 0 0 1 8.048828-9.808594 10 10 0 0 1 1.988281-.191406zm-1.037109 6h2v4.664063l4.308594 1.785156-.765625 1.847656-5.542969-2.296875z" fill="#9E9E9E"/></svg>

<svg fill="#9E9E9E" height="48" version="1.1" viewBox="0 0 48 48" width="48" xmlns="http://www.w3.org/2000/svg"><path d="M8 8C5.79 8 4.019531 9.79 4.019531 12L4 36C4 38.21 5.79 40 8 40L40 40C42.21 40 44 38.21 44 36L44 16C44 13.79 42.21 12 40 12L24 12 20 8 8 8zM28.037109 16A10 10 0 0 1 37.238281 22.173828 10 10 0 0 1  33.556641 34.314453 10 10 0 0 1  20.929688 33.070313L22.345703 31.654297A8 8 0 0 0 28 34 8 8 0 0 0  36 26 8 8 0 0 0  28 18 8 8 0 0 0  20 26L23 26 19 30 15 26 18 26A10 10 0 0 1 26.048828 16.191406 10 10 0 0 1  28.037109 16zM27 22L29 22 29 26.664063 33.308594 28.449219 32.542969 30.296875 27 28 27 22z"/></svg>
